assets/Balloon/Flat/balloon_flat.svg

<svg width="32" height="32" viewBox="0 0 32 32" fill="none" xmlns="http://www.w3.org/2000/svg">
<path d="M13.9351 19.0067L13.9333 19.0087L13.9305 19.012L13.9229 19.0209C13.917 19.0278 13.9095 19.0368 13.9005 19.0478C13.8825 19.0697 13.8585 19.0997 13.8293 19.1378C13.771 19.214 13.692 19.3225 13.5995 19.4635C13.4145 19.7454 13.175 20.1573 12.9379 20.6994C12.4627 21.7854 12 23.3874 12 25.5C12 26.5106 11.7718 27.1659 11.4748 27.5998C11.1789 28.0322 10.7713 28.3082 10.2992 28.4853C9.46918 28.7965 8.56253 28.7737 7.88702 28.7568C7.7472 28.7533 7.61728 28.75 7.5 28.75C7.08579 28.75 6.75 29.0858 6.75 29.5C6.75 29.9142 7.08579 30.25 7.5 30.25C7.56951 30.25 7.66035 30.2529 7.76891 30.2563C8.4143 30.2768 9.68601 30.3172 10.8258 29.8898C11.5204 29.6293 12.2065 29.1866 12.7127 28.4471C13.2178 27.7091 13.5 26.7394 13.5 25.5C13.5 23.6126 13.9123 22.2146 14.3121 21.3006C14.5125 20.8427 14.7105 20.5046 14.8536 20.2865C14.9252 20.1775 14.9829 20.0985 15.0203 20.0497C15.039 20.0253 15.0526 20.0084 15.0602 19.9991L15.067 19.9909L15.066 19.9921L15.0653 19.9929L15.067 19.9909C15.3369 19.6792 15.3046 19.2075 14.9939 18.9356C14.6822 18.6628 14.2078 18.695 13.9351 19.0067Z" fill="#3F5FFF"/>
<path d="M15.5446 19.0905L13.8083 18.3464C13.3732 18.1599 12.8716 18.3852 12.7219 18.8343C12.5946 19.2163 12.7675 19.6338 13.1277 19.8139L14.8173 20.6587C15.2073 20.8537 15.6815 20.7277 15.9234 20.3649C16.2233 19.9151 16.0415 19.3035 15.5446 19.0905Z" fill="#3F5FFF"/>
<path d="M27 11C27 15.9706 22.9706 20 18 20C13.0294 20 9 15.9706 9 11C9 6.02944 13.0294 2 18 2C22.9706 2 27 6.02944 27 11Z" fill="#F8312F"/>
<path d="M15.208 21.648L12.1528 20.2901C11.7825 20.1256 11.5977 19.7067 11.7259 19.3222C11.8728 18.8815 12.3675 18.6633 12.792 18.852L15.8471 20.2098C16.2174 20.3744 16.4022 20.7933 16.2741 21.1777C16.1272 21.6184 15.6325 21.8366 15.208 21.648Z" fill="#CA0B4A"/>
<path d="M24.1622 6.83776C25.0596 7.7352 25.2669 8.98294 24.6252 9.62465C23.9835 10.2664 22.7358 10.0591 21.8383 9.16161C20.9409 8.26417 20.7336 7.01644 21.3753 6.37473C22.017 5.73301 23.2647 5.94032 24.1622 6.83776Z" fill="#FF8687"/>
</svg>

<svg xmlns="http://www.w3.org/2000/svg" width="32" height="32" fill="none"><path fill="#3F5FFF" d="m13.935 19.007-.002.002-.002.003-.008.009a1.672 1.672 0 0 0-.094.117 5.523 5.523 0 0 0-.23.325 8.38 8.38 0 0 0-.661 1.236C12.463 21.785 12 23.387 12 25.5c0 1.01-.228 1.666-.525 2.1-.296.432-.704.708-1.176.885-.83.312-1.736.289-2.412.272-.14-.004-.27-.007-.387-.007a.75.75 0 0 0 0 1.5c.07 0 .16.003.269.006.645.02 1.917.061 3.057-.366.694-.26 1.38-.703 1.887-1.443.505-.738.787-1.708.787-2.947 0-1.887.412-3.285.812-4.2a6.9 6.9 0 0 1 .542-1.014A4.048 4.048 0 0 1 15.06 20l.007-.008-.001.001.001-.001a.75.75 0 0 0-1.132-.984Z"/><path fill="#3F5FFF" d="m15.545 19.09-1.737-.744a.81.81 0 0 0-.68 1.468l1.69.845a.865.865 0 1 0 .727-1.569Z"/><path fill="#F8312F" d="M27 11a9 9 0 1 1-18 0 9 9 0 0 1 18 0Z"/><path fill="#CA0B4A" d="m15.208 21.648-3.055-1.358a.787.787 0 1 1 .639-1.438l3.055 1.358a.787.787 0 0 1-.639 1.438Z"/><path fill="#FF8687" d="M24.162 6.838c.898.897 1.105 2.145.463 2.787-.642.641-1.89.434-2.787-.463-.897-.898-1.104-2.146-.463-2.787.642-.642 1.89-.435 2.787.463Z"/></svg>
